assets/icons/rails.svg

<svg aria-labelledby="simpleicons-rails-icon" role="img" xmlns="http://www.w3.org/2000/svg" viewBox="0 0 24 24"><title id="simpleicons-rails-icon">Rails icon</title><path d="M20.8848485 15.8107143v1.1635714h1.9818182c.4060606 0 1.1030303-.315 1.1272727-1.19571427v-.45c0-.75214286-.5818182-1.1957143-1.1272727-1.1957143h-.9878788v-.54h1.9575757v-1.17h-1.8787878c-.4848485 0-1.1333334.42428573-1.1333334 1.215v.405c0 .7907143.6424243 1.1957143 1.1333334 1.1957143 1.3636363.00642857-.3272728 0 .9333333 0v.56571428l-2.0060606.0064286zm-10.6181818-.28285716s1.060606-.09642857 1.060606-1.5492857c0-1.45285715-1.2848485-1.58785715-1.2848485-1.58785715H7.72727273v4.5835714H8.8909091v-1.1057143l1.0060606 1.1057142h1.7212121l-1.3515151-1.4464286zm-.44848488-.93857143H8.8909091v-1.0478571h.93333332s.26060608.1028572.26060608.5207143c0 .4178572-.26666668.5271429-.26666668.5271429zM14.2 12.4228572h-1.1818182c-.8424242 0-1.1272727.81-1.1272727 1.1957143v3.35571427h1.1818182v-.8035714h1.1090909v.8035714h1.1454545V13.6185715c0-.97714286-.8363636-1.1957143-1.1272727-1.1957143zm-.0181818 2.44928572h-1.1151515V13.76s0-.2507143.3696969-.2507143h.4060606c.3272728 0 .3333334.2507143.3333334.2507143v1.11214286h.0060606zm1.6848485-2.44928573h1.230303v4.5514285h-1.230303v-4.5514285zm2.9575757 3.375v-3.375H17.6v4.5514285h2.8787879v-1.1764285h-1.6545455z"/><path d="M.42424242 16.9742857h4.7878788S4.2969697 12.545 7.3272727 10.75142858c.66060607-.34071428 2.76363638-1.61357143 6.20606058 1.08642857.1090909-.09642857.2121212-.17357143.2121212-.17357143s-3.1515151-3.33642856-6.66060602-2.9635714c-1.76363636.16714284-3.93333333 1.87071427-5.2060606 4.12071427-1.27272726 2.25-1.45454546 4.1528571-1.45454546 4.1528571z"/><path d="M.42424242 16.9742857h4.7878788S4.2969697 12.545 7.3272727 10.75142858c.66060607-.34071428 2.76363638-1.61357143 6.20606058 1.08642857.1090909-.09642857.2121212-.17357143.2121212-.17357143s-3.1515151-3.33642856-6.66060602-2.9635714c-1.76363636.16714284-3.93333333 1.87071427-5.2060606 4.12071427-1.27272726 2.25-1.45454546 4.1528571-1.45454546 4.1528571z"/><path d="M.42424242 16.9742857h4.7878788S4.2969697 12.545 7.3272727 10.75142858c.66060607-.34071428 2.76363638-1.61357143 6.20606058 1.08642857.1090909-.09642857.2121212-.17357143.2121212-.17357143s-3.1515151-3.33642856-6.66060602-2.9635714c-1.76969696.16714284-3.93939393 1.87071427-5.2121212 4.12071427C.6 15.0714285.4242424 16.9742857.4242424 16.9742857zM10.4 9.0607143L10.4242424 8.63c-.0545454-.03214286-.2060606-.1092857-.58787876-.225l-.02424243.4242857c.2.0707143.3939394.14785716.5878788.2314286z"/><path d="M9.82424242 10.42357143l-.02424242.405c.2.00642857.4.03214286.6.07714286l.0242424-.3985715c-.2060606-.045-.4060606-.0707143-.59999998-.0835715zm-2.24242424-2.0057143h.06060606l-.12121212-.39214284c-.1878788 0-.38181818.0128571-.58181818.0385714l.1151515.3792857c.1757576-.0192857.35151517-.0257143.52727274-.0257143zm.2909091 2.3657143l.13939393.44357143c.1757576-.09.3515152-.16714286.5272728-.225l-.1333333-.42428572c-.2060606.06428572-.3818182.135-.5333333.2057143zM5.1212121 9.09285713l-.27272727-.44357142c-.15151515.0835715-.3090909.1735715-.47272727.2764286l.27878787.45c.15757576-.1028571.3090909-.1992857.46666667-.2828571zm1.24242424 2.89285716l.2909091.4628571c.1030303-.1607143.22424242-.3085715.35757575-.4564286L6.7393939 11.555c-.13939394.135-.26666667.28285714-.37575758.4307143zm-.87878788 2.07l.4909091.4114285C6 14.2164285 6.04242424 13.9657143 6.1030303 13.715l-.43636363-.36642857c-.07878788.23785714-.13333334.47571428-.1818182.70714286zM2.830303 11.0021428L2.4 10.60357142c-.15757576.1607143-.3090909.32142858-.44848485.48214287L2.41818182 11.51c.12727273-.17357143.26666666-.34714286.4121212-.50785714zM1 13.8757143l-.6969697-.27c-.1151515.27642856-.24242424.59785713-.3030303.77142856l.6969697.27C.77575758 14.42857143.9030303 14.11357143 1 13.8757143zm4.3939394 1.81285713c.0121212.34071428.04242424.61714286.07272727.81L6.1939394 16.775c-.05454546-.2507143-.10909092-.53357143-.14545455-.8357143l-.65454546-.25071427z"/></svg>

<?xml version="1.0" encoding="utf-8"?>
<!-- Generator: Adobe Illustrator 22.1.0, SVG Export Plug-In . SVG Version: 6.00 Build 0)  -->
<svg version="1.1" id="Layer_1" xmlns="http://www.w3.org/2000/svg" xmlns:xlink="http://www.w3.org/1999/xlink" x="0px" y="0px"
	 viewBox="0 0 24 24" style="enable-background:new 0 0 24 24;" xml:space="preserve">
<style type="text/css">
	.st0{fill:#444C54;}
</style>
<title  id="simpleicons-rails-icon">Rails icon</title>
<path class="st0" d="M20.9,15.8V17h2c0.4,0,1.1-0.3,1.1-1.2v-0.4c0-0.8-0.6-1.2-1.1-1.2h-1v-0.5h2v-1.2H22c-0.5,0-1.1,0.4-1.1,1.2
	V14c0,0.8,0.6,1.2,1.1,1.2c1.4,0-0.3,0,0.9,0v0.6C22.9,15.8,20.9,15.8,20.9,15.8z M10.3,15.5c0,0,1.1-0.1,1.1-1.5S10,12.4,10,12.4
	H7.7V17h1.2v-1.1l1,1.1h1.7C11.6,17,10.3,15.5,10.3,15.5z M9.8,14.6H8.9v-1h0.9c0,0,0.3,0.1,0.3,0.5C10.1,14.5,9.8,14.6,9.8,14.6z
	 M14.2,12.4H13c-0.8,0-1.1,0.8-1.1,1.2V17h1.2v-0.8h1.1V17h1.1v-3.4C15.3,12.6,14.5,12.4,14.2,12.4z M14.2,14.9h-1.1v-1.1
	c0,0,0-0.3,0.4-0.3h0.4c0.3,0,0.3,0.3,0.3,0.3L14.2,14.9C14.2,14.9,14.2,14.9,14.2,14.9z M15.9,12.4h1.2V17h-1.2V12.4z M18.8,15.8
	v-3.4h-1.2V17h2.9v-1.2C20.5,15.8,18.8,15.8,18.8,15.8z"/>
<path class="st0" d="M0.4,17h4.8c0,0-0.9-4.4,2.1-6.2c0.7-0.3,2.8-1.6,6.2,1.1c0.1-0.1,0.2-0.2,0.2-0.2s-3.2-3.3-6.7-3
	c-1.8,0.2-3.9,1.9-5.2,4.1S0.4,17,0.4,17z"/>
<path class="st0" d="M0.4,17h4.8c0,0-0.9-4.4,2.1-6.2c0.7-0.3,2.8-1.6,6.2,1.1c0.1-0.1,0.2-0.2,0.2-0.2s-3.2-3.3-6.7-3
	c-1.8,0.2-3.9,1.9-5.2,4.1S0.4,17,0.4,17z"/>
<path class="st0" d="M0.4,17h4.8c0,0-0.9-4.4,2.1-6.2c0.7-0.3,2.8-1.6,6.2,1.1c0.1-0.1,0.2-0.2,0.2-0.2s-3.2-3.3-6.7-3
	c-1.8,0.2-3.9,1.9-5.2,4.1S0.4,17,0.4,17z M10.4,9.1l0-0.4c-0.1,0-0.2-0.1-0.6-0.2l0,0.4C10,8.9,10.2,9,10.4,9.1z"/>
<path class="st0" d="M9.8,10.4l0,0.4c0.2,0,0.4,0,0.6,0.1l0-0.4C10.2,10.5,10,10.4,9.8,10.4z M7.6,8.4L7.6,8.4L7.5,8
	c-0.2,0-0.4,0-0.6,0l0.1,0.4C7.2,8.4,7.4,8.4,7.6,8.4z M7.9,10.8L8,11.2c0.2-0.1,0.4-0.2,0.5-0.2l-0.1-0.4C8.2,10.6,8,10.7,7.9,10.8
	z M5.1,9.1L4.8,8.6C4.7,8.7,4.5,8.8,4.4,8.9l0.3,0.4C4.8,9.3,5,9.2,5.1,9.1z M6.4,12l0.3,0.5C6.8,12.3,6.9,12.1,7,12l-0.3-0.4
	C6.6,11.7,6.5,11.8,6.4,12z M5.5,14.1L6,14.5C6,14.2,6,14,6.1,13.7l-0.4-0.4C5.6,13.6,5.5,13.8,5.5,14.1z M2.8,11l-0.4-0.4
	c-0.2,0.2-0.3,0.3-0.4,0.5l0.5,0.4C2.5,11.3,2.7,11.2,2.8,11z M1,13.9l-0.7-0.3c-0.1,0.3-0.2,0.6-0.3,0.8l0.7,0.3
	C0.8,14.4,0.9,14.1,1,13.9z M5.4,15.7c0,0.3,0,0.6,0.1,0.8l0.7,0.3c-0.1-0.3-0.1-0.5-0.1-0.8C6,15.9,5.4,15.7,5.4,15.7z"/>
</svg>
